src/lib/packages/icons/src/assets/line/game-controller.svg

<svg xmlns="http://www.w3.org/2000/svg" width="24" height="24" fill="none"><path fill="currentColor" d="M10.75 13a.75.75 0 0 1-.75.75H8.75V15a.75.75 0 0 1-1.5 0v-1.25H6a.75.75 0 0 1 0-1.5h1.25V11a.75.75 0 0 1 1.5 0v1.25H10a.75.75 0 0 1 .75.75Zm11 0v4c0 2.36-1.288 4.75-3.75 4.75h-.259a3.995 3.995 0 0 1-3.331-1.782A2.997 2.997 0 0 0 12 18.75a2.993 2.993 0 0 0-2.407 1.203 3.994 3.994 0 0 1-3.34 1.797H6c-2.462 0-3.75-2.39-3.75-4.75v-4c0-4.227 2.149-6.75 5.75-6.75h3.25V6c0-1.241 1.01-2.25 2.25-2.25h1a.75.75 0 0 0 .75-.75.75.75 0 0 1 1.5 0c0 1.241-1.01 2.25-2.25 2.25h-1a.75.75 0 0 0-.75.75v.25H16c3.601 0 5.75 2.523 5.75 6.75Zm-1.5 0c0-3.386-1.51-5.25-4.25-5.25H8c-2.74 0-4.25 1.864-4.25 5.25v4c0 1.565.704 3.25 2.25 3.25h.253a2.5 2.5 0 0 0 2.087-1.121c.047-.073 1.253-1.879 3.66-1.879 2.408 0 3.613 1.816 3.663 1.894a2.498 2.498 0 0 0 2.078 1.106H18c1.546 0 2.25-1.685 2.25-3.25v-4Zm-5.5.25a1 1 0 1 0 0 2 1 1 0 0 0 0-2Zm2.5-2.499a1 1 0 1 0 0 2 1 1 0 0 0 0-2Z"/></svg>

<svg width="24" height="24" viewBox="0 0 24 24" fill="none" xmlns="http://www.w3.org/2000/svg">
<path d="M10.75 13C10.75 13.414 10.414 13.75 10 13.75H8.75V15C8.75 15.414 8.414 15.75 8 15.75C7.586 15.75 7.25 15.414 7.25 15V13.75H6C5.586 13.75 5.25 13.414 5.25 13C5.25 12.586 5.586 12.25 6 12.25H7.25V11C7.25 10.586 7.586 10.25 8 10.25C8.414 10.25 8.75 10.586 8.75 11V12.25H10C10.414 12.25 10.75 12.586 10.75 13ZM21.75 13V17C21.75 19.36 20.462 21.75 18 21.75H17.741C16.399 21.75 15.1539 21.084 14.4099 19.968C14.3749 19.915 13.575 18.75 12 18.75C10.396 18.75 9.60102 19.9409 9.59302 19.9529C8.84702 21.0799 7.59993 21.75 6.25293 21.75H6C3.538 21.75 2.25 19.36 2.25 17V13C2.25 8.773 4.399 6.25 8 6.25H11.25V6C11.25 4.759 12.26 3.75 13.5 3.75H14.5C14.913 3.75 15.25 3.414 15.25 3C15.25 2.586 15.586 2.25 16 2.25C16.414 2.25 16.75 2.586 16.75 3C16.75 4.241 15.74 5.25 14.5 5.25H13.5C13.087 5.25 12.75 5.586 12.75 6V6.25H16C19.601 6.25 21.75 8.773 21.75 13ZM20.25 13C20.25 9.614 18.74 7.75 16 7.75H8C5.26 7.75 3.75 9.614 3.75 13V17C3.75 18.565 4.454 20.25 6 20.25H6.25293C7.09493 20.25 7.87509 19.8309 8.34009 19.1289C8.38709 19.0559 9.593 17.25 12 17.25C14.408 17.25 15.6131 19.066 15.6631 19.144C16.1241 19.833 16.902 20.25 17.741 20.25H18C19.546 20.25 20.25 18.565 20.25 17V13ZM14.75 13.25C14.198 13.25 13.75 13.698 13.75 14.25C13.75 14.802 14.198 15.25 14.75 15.25C15.302 15.25 15.75 14.802 15.75 14.25C15.75 13.698 15.302 13.25 14.75 13.25ZM17.25 10.751C16.698 10.751 16.25 11.199 16.25 11.751C16.25 12.303 16.698 12.751 17.25 12.751C17.802 12.751 18.25 12.303 18.25 11.751C18.25 11.199 17.802 10.751 17.25 10.751Z" fill="currentColor"/>
</svg>
